X:217
T:Johnny and Dorothy Livingston
C:as played by Mari Campbell
M:4/4
F:http://blackrosetheband.googlepages.com/ABCTUNES.ABC May 2009
R:March
K:D
D2 E2|:{E}FA,A,B, A,B,DF|EDEF D2EF|{F}G>F GB {c}BAdF|{G}F>E DF E2 D>E|
FA,A,B, A,B,DF|GABc {c}d2c>B|AB/2c/2 dF GEA[AG]|1[A2F2] [A2D2][AD] z [AD]>[AE] :|2 [A2F2] [A2D2][AD] z AB/2c/2|
|:d2 e>f A3f|g>f ed Bc/2B/2 AB|d2 e>f A2 ag|fg/2f/2 e2 e2 d>e|
fedc d2cB|AB/2c/2 dF G2 A>G|FAdF GEA[AG]|1 [A2F2] [A2D2][AD] z AB/2c/2 :|2[A2F2] [A2D2] [A4D4] ||
